packages/foundations/assets/icons/functional/images/environment/snow_flake_14.svg

<svg width="14" height="14" viewBox="0 0 14 14" fill="none" xmlns="http://www.w3.org/2000/svg">
<g clip-path="url(#clip0_185_847)">
<path fill-rule="evenodd" clip-rule="evenodd" d="M7.00299 1.57501C7.26878 1.57501 7.52902 1.78863 7.5232 2.10001L7.52739 2.93231L8.03176 2.42878C8.21815 2.24239 8.54168 2.21269 8.75085 2.4029C8.96002 2.59311 9.0084 2.90638 8.77422 3.17124L7.52739 4.41701V6.09071L9.10519 5.18001L9.52735 3.60606C9.6024 3.32599 9.89027 3.15979 10.1703 3.23483C10.425 3.30305 10.6219 3.54876 10.5416 3.87782L10.3911 4.43731L10.984 4.09535C11.2351 3.95037 11.5562 4.03641 11.7012 4.28751C11.8341 4.51769 11.779 4.84202 11.509 5.00468L10.7537 5.44041L11.5703 5.6597C11.8458 5.72108 12.012 6.02195 11.9416 6.30269C11.8711 6.58344 11.6213 6.75201 11.2986 6.67392L9.46709 6.18311L8.05309 6.99931L9.72469 7.96461L11.2986 7.54356C11.5787 7.46852 11.8665 7.63472 11.9416 7.91479C12.0098 8.1694 11.8702 8.47737 11.5703 8.55778L11.0106 8.70731L11.509 8.99535C11.7601 9.14032 11.8462 9.46141 11.7012 9.71251C11.5683 9.94269 11.2691 10.0626 10.984 9.90468L10.3225 9.52211L10.5416 10.3397C10.6098 10.5943 10.469 10.8964 10.2067 10.9827C9.94448 11.0689 9.6261 10.9268 9.52735 10.6114L9.03589 8.77941L7.52739 7.90861V9.80001L8.77422 11.0462C8.97925 11.2513 8.97925 11.5837 8.77422 11.7887C8.58784 11.9751 8.26928 12.0055 8.05309 11.8162L7.52739 11.284L7.52799 11.9C7.52799 12.19 7.29294 12.425 7.00299 12.425C6.73721 12.425 6.47799 12.2219 6.47739 11.9V11.2847L5.97422 11.7887C5.75304 12.0088 5.42063 11.9751 5.23176 11.7887C5.0429 11.6023 5.01419 11.2847 5.23176 11.0462L6.47739 9.80001V7.90931L4.96889 8.78011L4.47863 10.6114C4.40359 10.8915 4.11571 11.0577 3.83564 10.9827C3.58103 10.9144 3.38408 10.6362 3.4491 10.3668L3.68299 9.52281L3.02197 9.90468C2.77086 10.0497 2.44978 9.96362 2.3048 9.71251C2.17191 9.48233 2.21342 9.16682 2.46778 9.01903L2.99489 8.70731L2.43564 8.55778C2.18103 8.48956 1.96999 8.2103 2.06441 7.91479C2.15884 7.61928 2.42073 7.47719 2.7074 7.54356L4.28079 7.96461L5.95309 6.99931L4.53839 6.18241L2.7074 6.67392C2.42733 6.74897 2.13178 6.57092 2.06441 6.30269C1.99704 6.03447 2.13178 5.7379 2.41229 5.6597L3.25249 5.44041L2.49697 5.00468C2.24586 4.8597 2.15983 4.53862 2.3048 4.28751C2.4377 4.05733 2.74803 3.94528 3.02197 4.09535L3.61369 4.43661L3.46441 3.87782C3.39619 3.62321 3.50702 3.31579 3.81679 3.23483C4.12657 3.15387 4.39452 3.31579 4.47863 3.60606L4.89959 5.17931L6.47739 6.09001V4.41701L5.23176 3.17124C5.02674 2.96622 5.02674 2.63381 5.23176 2.42878C5.41815 2.24239 5.73772 2.2144 5.95309 2.4029L6.47739 2.93161L6.47799 2.10001C6.47799 1.81006 6.71304 1.57501 7.00299 1.57501Z" fill="#1A1C1F"/>
</g>
<defs>
<clipPath id="clip0_185_847">
<rect width="14" height="14" fill="white"/>
</clipPath>
</defs>
</svg>

<svg xmlns="http://www.w3.org/2000/svg" width="14" height="14" fill="none"><g clip-path="url(#a)"><path fill="#1A1C1F" fill-rule="evenodd" d="M7.003 1.575c.266 0 .526.214.52.525l.004.832.505-.503a.53.53 0 0 1 .719-.026c.209.19.257.503.023.768L7.527 4.417v1.674l1.578-.911.422-1.574a.525.525 0 0 1 .643-.371.515.515 0 0 1 .372.643l-.15.56.592-.343a.525.525 0 0 1 .525.91l-.755.435.816.22c.276.061.442.362.372.643-.07.28-.32.449-.643.37l-1.832-.49L8.053 7l1.672.966 1.574-.421a.525.525 0 1 1 .271 1.014l-.56.15.499.287a.525.525 0 1 1-.525.91l-.662-.383.22.818c.068.254-.073.556-.335.643a.544.544 0 0 1-.68-.372L9.036 8.78l-1.509-.87V9.8l1.247 1.246a.525.525 0 0 1 0 .743.53.53 0 0 1-.72.027l-.527-.532.001.616c0 .29-.235.525-.525.525a.52.52 0 0 1-.526-.525v-.615l-.503.504a.53.53 0 0 1-.742 0 .527.527 0 0 1 0-.743L6.477 9.8V7.91l-1.508.87-.49 1.831a.525.525 0 0 1-.643.372c-.255-.069-.452-.347-.387-.616l.234-.844-.661.382a.525.525 0 0 1-.717-.192c-.133-.23-.092-.546.163-.694l.527-.312-.56-.15c-.254-.067-.465-.347-.37-.642a.525.525 0 0 1 .642-.371l1.574.42L5.953 7l-1.415-.817-1.83.492a.53.53 0 0 1-.644-.371c-.067-.269.068-.565.348-.643l.84-.22-.755-.435a.525.525 0 1 1 .525-.91l.592.342-.15-.56c-.068-.254.043-.561.353-.642a.523.523 0 0 1 .662.371l.42 1.573 1.578.911V4.417L5.232 3.171a.525.525 0 0 1 0-.742.533.533 0 0 1 .721-.026l.524.529.001-.832c0-.29.235-.525.525-.525" clip-rule="evenodd"/></g><defs><clipPath id="a"><path fill="#fff" d="M0 0h14v14H0z"/></clipPath></defs></svg>
